img/icon-license-3.svg

<svg fill="none" height="16" viewBox="0 0 16 16" width="16" xmlns="http://www.w3.org/2000/svg"><path clip-rule="evenodd" d="m8.74991 1.50195c0-.19891-.07902-.38967-.21967-.530327-.14066-.140652-.33142-.21967-.53033-.21967-.19892 0-.38968.079018-.53033.21967-.14066.140657-.21967.331417-.21967.530327v1.25h-.984c-.305 0-.604.08-.869.23l-1.288.737c-.03806.02177-.08116.03315-.125.033h-2.234c-.19892 0-.38968.07902-.53033.21967-.14066.14066-.219673.33142-.219673.53033 0 .19892.079013.38968.219673.53033.14065.14066.33141.21967.53033.21967h.428l-2.1120034 4.692c-.06238195.13885-.0810601.29335-.0535537.44295.0275064.1497.0998951.2875.2075541.3951l.53-.53-.53.53v.001l.002.002.002.002.006.006.016.015.045.04c.210311.1762.440547.3273.686.45.629703.307 1.322493.4624 2.023003.454.88 0 1.556-.22 2.023-.454.24544-.1228.47568-.2738.686-.45l.045-.04.016-.015.006-.006.002-.002.001-.002-.529-.531.53.53c.10766-.1076.18004-.2454.20755-.3951.02751-.1496.00883-.3041-.05355-.44295l-2.112-4.692h.162c.305 0 .604-.08.869-.23l1.289-.737c.03776-.0216.0805-.03297.124-.033h.984v9.50005h-2.5c-.19892 0-.38968.079-.53033.2196-.14066.1407-.21967.3314-.21967.5304 0 .1989.07901.3896.21967.5303.14065.1406.33141.2197.53033.2197h6.49999c.1989 0 .3897-.0791.5303-.2197.1407-.1407.2197-.3314.2197-.5303 0-.199-.079-.3897-.2197-.5304-.1406-.1406-.3314-.2196-.5303-.2196h-2.49999v-9.50005h.984c.0435.00003.08624.0114.124.033l1.28999.736c.264.152.563.231.868.231h.162l-2.112 4.692c-.0624.13885-.08105.29335-.0535.44295.0275.1497.0998.2875.2075.3951l.53-.53-.53.53v.001l.002.002.002.002.006.006.016.015.045.04c.2103.1762.4406.3272.686.45.6297.307 1.3225.4624 2.023.454.88 0 1.556-.22 2.023-.454.2455-.1227.4757-.2738.686-.45l.045-.04.01-.01.006-.005.006-.006.002-.002.001-.002-.529-.531.53.53c.1077-.1076.1801-.2454.2076-.3951.0275-.1496.0088-.3041-.0536-.44295l-2.111-4.692h.427c.1989 0 .3897-.07901.5303-.21967.1407-.14065.2197-.33141.2197-.53033 0-.19891-.079-.38967-.2197-.53033-.1406-.14065-.3314-.21967-.5303-.21967h-2.234c-.0435-.00002-.0862-.0114-.124-.033l-1.29-.736c-.264-.15103-.5628-.23065-.86699-.231h-.985zm-7.055 8.477c.285.13505.718.27305 1.305.27305s1.02-.138 1.305-.27305l-1.305-2.9zm9.99999 0c.285.13505.718.27305 1.305.27305s1.02-.138 1.305-.27305l-1.305-2.9z" fill="#000" fill-rule="evenodd"/></svg>

<svg width="16" height="16" viewBox="0 0 16 16" fill="none" xmlns="http://www.w3.org/2000/svg">
<path fill-rule="evenodd" clip-rule="evenodd" d="M8.74991 1.50195C8.74991 1.30304 8.67089 1.11228 8.53024 0.971623C8.38958 0.830971 8.19882 0.751953 7.99991 0.751953C7.80099 0.751953 7.61023 0.830971 7.46958 0.971623C7.32892 1.11228 7.24991 1.30304 7.24991 1.50195V2.75195H6.26591C5.96091 2.75195 5.66191 2.83195 5.39691 2.98195L4.10891 3.71895C4.07085 3.74072 4.02775 3.7521 3.98391 3.75195H1.74991C1.55099 3.75195 1.36023 3.83097 1.21958 3.97162C1.07892 4.11228 0.999907 4.30304 0.999907 4.50195C0.999907 4.70087 1.07892 4.89163 1.21958 5.03228C1.36023 5.17294 1.55099 5.25195 1.74991 5.25195H2.17791L0.0659066 9.94395C0.00352465 10.0828 -0.0151535 10.2373 0.0123529 10.3869C0.0398593 10.5366 0.112248 10.6744 0.219907 10.782L0.749907 10.252L0.219907 10.782V10.783L0.221907 10.785L0.223907 10.787L0.229907 10.793L0.245907 10.808L0.290907 10.848C0.501218 11.0242 0.731454 11.1753 0.976907 11.298C1.60661 11.605 2.2994 11.7604 2.99991 11.752C3.87991 11.752 4.55591 11.532 5.02291 11.298C5.26835 11.1752 5.49859 11.0242 5.70891 10.848L5.75391 10.808L5.76991 10.793L5.77591 10.787L5.77791 10.785L5.77891 10.783L5.24991 10.252L5.77991 10.782C5.88757 10.6744 5.95995 10.5366 5.98746 10.3869C6.01497 10.2373 5.99629 10.0828 5.93391 9.94395L3.82191 5.25195H3.98391C4.28891 5.25195 4.58791 5.17195 4.85291 5.02195L6.14191 4.28495C6.17967 4.26335 6.22241 4.25198 6.26591 4.25195H7.24991V13.752H4.74991C4.55099 13.752 4.36023 13.831 4.21958 13.9716C4.07892 14.1123 3.99991 14.303 3.99991 14.502C3.99991 14.7009 4.07892 14.8916 4.21958 15.0323C4.36023 15.1729 4.55099 15.252 4.74991 15.252H11.2499C11.4488 15.252 11.6396 15.1729 11.7802 15.0323C11.9209 14.8916 11.9999 14.7009 11.9999 14.502C11.9999 14.303 11.9209 14.1123 11.7802 13.9716C11.6396 13.831 11.4488 13.752 11.2499 13.752H8.74991V4.25195H9.73391C9.77741 4.25198 9.82015 4.26335 9.85791 4.28495L11.1479 5.02095C11.4119 5.17295 11.7109 5.25195 12.0159 5.25195H12.1779L10.0659 9.94395C10.0035 10.0828 9.98485 10.2373 10.0124 10.3869C10.0399 10.5366 10.1122 10.6744 10.2199 10.782L10.7499 10.252L10.2199 10.782V10.783L10.2219 10.785L10.2239 10.787L10.2299 10.793L10.2459 10.808L10.2909 10.848C10.5012 11.0242 10.7315 11.1752 10.9769 11.298C11.6066 11.605 12.2994 11.7604 12.9999 11.752C13.8799 11.752 14.5559 11.532 15.0229 11.298C15.2684 11.1753 15.4986 11.0242 15.7089 10.848L15.7539 10.808L15.7639 10.798L15.7699 10.793L15.7759 10.787L15.7779 10.785L15.7789 10.783L15.2499 10.252L15.7799 10.782C15.8876 10.6744 15.96 10.5366 15.9875 10.3869C16.015 10.2373 15.9963 10.0828 15.9339 9.94395L13.8229 5.25195H14.2499C14.4488 5.25195 14.6396 5.17294 14.7802 5.03228C14.9209 4.89163 14.9999 4.70087 14.9999 4.50195C14.9999 4.30304 14.9209 4.11228 14.7802 3.97162C14.6396 3.83097 14.4488 3.75195 14.2499 3.75195H12.0159C11.9724 3.75193 11.9297 3.74055 11.8919 3.71895L10.6019 2.98295C10.3379 2.83192 10.0391 2.7523 9.73491 2.75195H8.74991V1.50195ZM1.69491 9.97895C1.97991 10.114 2.41291 10.252 2.99991 10.252C3.58691 10.252 4.01991 10.114 4.30491 9.97895L2.99991 7.07895L1.69491 9.97895ZM11.6949 9.97895C11.9799 10.114 12.4129 10.252 12.9999 10.252C13.5869 10.252 14.0199 10.114 14.3049 9.97895L12.9999 7.07895L11.6949 9.97895Z" fill="black"/>
</svg>
